X:1
T:Bourre des dindes
Z:Ren Quiniou (http://www.irisa.fr/prive/quiniou)
R:
C:Trad.
S:
A:Berry
M:4/4
L:1/8
K:C
Q:1/4=180
G2 AB c2 c2 | d>efe dcBA | G2 AB c2 c2 | d>efe d4 :|
d>efe d>efe  | dcBA A2 G2 |d>efe d>efe  | dcBd c4 :|
